X:1
T:Title
%%score { 1 | 2 }
L:1/8
M:3/4
K:D
V:1 treble nm="Grand Piano"
V:2 bass 
V:1
 z2 z[Q:1/4=96] F E>D | F3 F E>D | [FA]3 [FA] [DF][FA] | [Fd]3 [FA] [DF]>[DE] |[M:3/8] [CE]3 | %5
 [CE][CE]>[DF] |[M:3/4] [EG]3 [EG] [DF]>[CE] | [DF]3 [FA] [FA][FA] | [GB]3 [GB] [^Gd]>[Gc] | %9
[M:5/8] c- c3 z |[M:1/8] A |[M:3/4] [Fd]>[Ge] [Fd]3 [GB] | [FA]>[GB] [FA]3 [DF] | %13
 [CE]>[DF] [FA]3 [EG] |[M:5/8] [A,DF]>[A,EG] [DFA]2 z |[M:1/8] A |[M:3/4] [Fd]>[Ge] [Fd]3 [FA] | %17
[M:15/16] B>cd- d3- d/B |[M:3/4] A>B A3 F |[M:7/16] [CE]>DD3/2 |] %20
V:2
 z2 z [D,A,D] [D,G,D]>[D,F,] | [D,A,D]3 [D,A,D] [D,G,D]>[D,F,] | [D,D]3 [D,D] [D,A,][D,D] | %3
 [D,A,]3 [D,D] [D,A,]>[B,,^G,] |[M:3/8] [A,,A,]3 | [A,,A,][A,,A,]>[A,,A,] | %6
[M:3/4] [A,,A,]3 [A,,A,] [A,,A,]>[A,,A,] | [D,A,]3 [D,D] [D,D][D,D] | [G,D]3 [G,D] [E,E]>[E,E] | %9
[M:5/8][K:treble] [A,EA]- [A,EA]3 z |[M:1/8][K:bass] A, |[M:3/4] [D,A,]>[D,A,] [D,A,]3 [D,D] | %12
 [D,D]>[D,D] [D,D]3 [D,A,] | [A,,A,]>[A,,A,] [A,,A,]3 [A,,A,] |[M:5/8] D,>D, D,2 z |[M:1/8] A, | %16
[M:3/4] [D,A,]>[D,A,] [D,A,]3 [D,D] | %17
[M:15/16][K:treble] [G,DG]>[G,CG][G,B,G]- [G,B,G]3- [G,B,G]/[G,DG] | %18
[M:3/4] [A,DF]>[A,DF] [A,DF]3[K:bass] [A,D] |[M:7/16] [A,,G,]>[D,F,][D,F,]3/2 |] %20

